X:1
L:1/4
Q:1/4=200
M:6/8
V:1
V:2 clef=bass
K:F
[V:1] D3/4 z/4 D/ D3/4 z/4 D/ | D3/4 z/4 D/ D/A,/C/ | [F,A,D]3/4 z/4 [F,A,D]3/4 z/4 [F,A,D]/[A,CE]/ | [B,DF]3/4 z/4 [B,DF]3/4 z/4 [B,DF]/[DG]/ |
[V:2]  [D,,,D,,]2- [D,,,D,,]3/4 z/4 | [D,,,D,,]- [D,,,D,,]/4 z/4 [D,,,D,,]- [D,,,D,,]/4 z/4 | [D,,D,]3/4 z/4 [D,,D,]/ [D,,D,]3/4 z/4 [C,,C,]/ | [B,,,B,,]3/4 z/4 [B,,,B,,]/ [B,,,B,,]3/4 z/4 [B,,,B,,]/ |